X:157
M:2/4
L:1/8
K:G
|:(c/B/c/d/) ca|BcdB|A>BAc|BGAD|(c/B/c/d/) ca|BcdB|Ag (f/g/a/f/)|g2 g2:|

